X: 1
T: The Humours Of Kiltyclogher
R: jig
M: 6/8
L: 1/8
K: Ador
|:B|AGE G2E|c2E G2E|DED D2E|GED D2B|
AGE G2E|c2E DEG|A3 BGE|A3 A2:|
|:B|c2B c2d|ecA ABc|BAG GAB|dBG GAB|
c2B c2d|ecA ABc|BAG GEG|A3 A2:|


Tune 1043	Setting 2893

